svgs/sharp-light/rectangle-history-circle-plus.svg

<svg xmlns="http://www.w3.org/2000/svg" viewBox="0 0 640 512"><!--! Font Awesome Pro 6.6.0 by @fontawesome - https://fontawesome.com License - https://fontawesome.com/license (Commercial License) Copyright 2024 Fonticons, Inc. --><path d="M480 160l0 32.7c5.3-.5 10.6-.7 16-.7s10.7 .2 16 .7l0-32.7 0-32-32 0L32 128 0 128l0 32L0 480l0 32 32 0 362.8 0c-12.9-9.1-24.5-19.9-34.6-32L32 480l0-320 448 0zM464 64L48 64l0 32 416 0 0-32zM416 0L96 0l0 32 320 0 0-32zM384 368a112 112 0 1 1 224 0 112 112 0 1 1 -224 0zm256 0a144 144 0 1 0 -288 0 144 144 0 1 0 288 0zM512 304l0-16-32 0 0 16 0 48-48 0-16 0 0 32 16 0 48 0 0 48 0 16 32 0 0-16 0-48 48 0 16 0 0-32-16 0-48 0 0-48z"/></svg>

<svg xmlns="http://www.w3.org/2000/svg" viewBox="0 0 640 512"><!--! Font Awesome Pro 6.4.0 by @fontawesome - https://fontawesome.com License - https://fontawesome.com/license (Commercial License) Copyright 2023 Fonticons, Inc. --><path d="M480 160v32.7c5.3-.5 10.6-.7 16-.7s10.7 .2 16 .7V160 128H480L32 128H0v32V480v32H32l362.8 0c-12.9-9.1-24.5-19.9-34.6-32L32 480l0-320 448 0zM464 64L48 64V96l416 0V64zM416 0H96V32l320 0V0zM384 368a112 112 0 1 1 224 0 112 112 0 1 1 -224 0zm256 0a144 144 0 1 0 -288 0 144 144 0 1 0 288 0zM512 304V288H480v16 48H432 416v32h16 48v48 16h32V432 384h48 16V352H560 512V304z"/></svg>
